Papirus/32x32/apps/abiword.svg

<?xml version="1.0" encoding="UTF-8" standalone="no"?>
<svg xmlns="http://www.w3.org/2000/svg" height="32" viewBox="0 0 32 32" width="32" version="1.1">
 <path d="m16 2a14 14 0 0 0 -14 14 14 14 0 0 0 14 14 14 14 0 0 0 14 -14 14 14 0 0 0 -14 -14z" style="fill:#248afd;"/>
 <path opacity=".2" fill="#ffffff" d="m16 2a14 14 0 0 0 -14 14 14 14 0 0 0 0.0215 0.414 14 14 0 0 1 13.978 -13.414 14 14 0 0 1 13.979 13.586 14 14 0 0 0 0.021 -0.586 14 14 0 0 0 -14 -14z"/>
 <path opacity=".2" d="m2.0215 16.414a14 14 0 0 0 -0.0215 0.586 14 14 0 0 0 14 14 14 14 0 0 0 14 -14 14 14 0 0 0 -0.021 -0.414 14 14 0 0 1 -13.979 13.414 14 14 0 0 1 -13.978 -13.586z"/>
 <path style="opacity:0.2" d="M 16.785156 4.0039062 C 15.835464 3.9350677 14.851385 4.6714541 14.195312 5.3496094 C 11.447126 8.1821774 9.7730745 11.878176 8.1328125 15.447266 C 6.7972924 18.396007 5.7967338 21.484097 4.9921875 24.625 A 14 14 0 0 0 7.2148438 26.896484 C 7.2408696 26.223172 7.5097889 25.4223 7.6425781 24.923828 C 8.9063401 20.727843 10.864991 16.798509 12.728516 12.859375 C 13.46635 11.614806 13.990848 9.8987779 15.478516 9.4199219 C 16.923516 9.2549109 17.872616 10.692475 18.621094 11.740234 C 21.417597 16.141902 24.05869 20.656217 26.429688 25.314453 A 14 14 0 0 0 27.291016 24.248047 C 25.647303 18.699453 23.548932 13.288697 20.644531 8.3046875 C 19.74445 6.9439704 18.923383 5.4676949 17.708984 4.3730469 C 17.413115 4.1395331 17.10172 4.0268524 16.785156 4.0039062 z M 22.646484 22.367188 C 18.187063 24.632883 13.598459 26.755886 8.7460938 27.958984 A 14 14 0 0 0 11.638672 29.285156 C 13.579385 28.47937 15.459102 27.504727 17.273438 26.449219 C 19.19671 25.288564 21.04637 23.969713 22.646484 22.367188 z"/>
 <path style="fill:#cccccc;stroke-width:0.10892617px;" d="m 22.645548,21.36797 c -4.625755,2.350205 -9.386678,4.55576 -14.4409234,5.730765 -1.629173,-0.0082 -0.825346,-2.18795 -0.562206,-3.17574 C 8.90618,19.72701 10.865735,15.79869 12.72926,11.859556 c 0.737834,-1.244569 1.261176,-2.9598138 2.748844,-3.4386698 1.445,-0.165011 2.394428,1.27116 3.142906,2.3189188 3.060529,4.817242 5.950766,9.76054 8.485689,14.890295 0.642018,1.33703 1.270996,2.68061 1.893301,4.02738 -1.850441,-7.762335 -4.341095,-15.462253 -8.356257,-22.3523508 -0.900081,-1.360717 -1.71981,-2.837248 -2.934209,-3.931896 -1.183477,-0.934055 -2.63915,0.071567 -3.513913,0.975774 -2.748186,2.832568 -4.422146,6.5287538 -6.0624074,10.0978438 -1.913036,4.223859 -3.168227,8.726164 -4.089605,13.273994 -0.323032,1.531635 1.20992,2.643385 2.572217,2.16813 3.7733494,-0.80655 7.3193604,-2.498365 10.6566364,-4.43986 1.923272,-1.160655 3.772972,-2.47862 5.373086,-4.081145 z"/>
</svg>

<?xml version="1.0" encoding="UTF-8" standalone="no"?>
<svg width="32" xmlns="http://www.w3.org/2000/svg" viewBox="0 0 32 32" version="1.1" height="32">
 <circle cy="17" cx="16" r="14" style="opacity:.2"/>
 <circle style="fill:#248afd" cx="16" r="14" cy="16"/>
 <path style="opacity:.2" d="m16.785 4.0039c-0.95-0.0688-1.934 0.6676-2.59 1.3457-2.748 2.8326-4.4219 6.5284-6.0622 10.097-1.3355 2.949-2.3361 6.037-3.1406 9.178a14 14 0 0 0 2.2226 2.271c0.0261-0.673 0.295-1.474 0.4278-1.972 1.2637-4.196 3.2224-8.125 5.0864-12.065 0.737-1.244 1.262-2.9602 2.75-3.4391 1.445-0.165 2.394 1.2721 3.142 2.3201 2.797 4.402 5.438 8.916 7.809 13.574a14 14 0 0 0 0.861 -1.066c-1.644-5.549-3.742-10.959-6.646-15.943-0.901-1.361-1.722-2.8373-2.936-3.932-0.296-0.2335-0.607-0.3461-0.924-0.3691zm5.861 18.363c-4.459 2.266-9.048 4.389-13.9 5.592a14 14 0 0 0 2.893 1.326c1.94-0.806 3.82-1.78 5.634-2.836 1.924-1.16 3.773-2.479 5.373-4.082z"/>
 <path style="fill:#cccccc" d="m22.646 21.368c-4.6258 2.3502-9.3867 4.5558-14.441 5.7308-1.6292-0.0082-0.82535-2.188-0.56221-3.1757 1.2632-4.196 3.223-8.124 5.086-12.063 0.73783-1.2446 1.2612-2.9598 2.7488-3.4387 1.445-0.16501 2.3944 1.2712 3.1429 2.3189 3.0605 4.8172 5.9508 9.7605 8.4857 14.89 0.64202 1.337 1.271 2.6806 1.8933 4.0274-1.8504-7.7623-4.3411-15.462-8.3563-22.352-0.90008-1.3607-1.7198-2.8372-2.9342-3.9319-1.1835-0.93406-2.6392 0.071567-3.5139 0.97577-2.7482 2.8326-4.4221 6.5288-6.0624 10.098-1.913 4.2239-3.1682 8.7262-4.0896 13.274-0.32303 1.5316 1.2099 2.6434 2.5722 2.1681 3.7733-0.80655 7.3194-2.4984 10.657-4.4399 1.9233-1.1607 3.773-2.4786 5.3731-4.0811z"/>
 <path style="opacity:.2;fill:#ffffff" d="m16 2a14 14 0 0 0 -14 14 14 14 0 0 0 0.0215 0.586 14 14 0 0 1 13.978 -13.586 14 14 0 0 1 13.979 13.414 14 14 0 0 0 0.021 -0.414 14 14 0 0 0 -14 -14z"/>
</svg>
